!!!!SEGMENT: pl-cz--d-ii-40--005_elsner-jozef--requiem-in-c-op-42-hostias.krn
!!!cenid: 18xx:34
!!!COM: Elsner, Józef
!!!COM-rismID: pe30000957
!!!CDT: 1769/06/01-1854/04/18
!!!CNT: Polish
!!!OPR: Requiem in C op. 42
!!!OTL: Hostias
!!!OMV: 005
!!!PDT:
!!!AGN: Sacred; Requiem
!!!SMS-siglum: PL-CZ
!!!SMS-shelfmark: D II-40
!!!SMS-shelfwork: 001-005 M
!!!NIFC-rismSourceID:
!!!NIFC-islandoraID: pl-cz:35407
!!!URL-pdf-islandora: https://repozytorium.nifc.pl/islandora/object/pl-cz%3A35407/datastream/PDF/view
!!!URL-scan:
!!!ONB-nifc:
!!!OMD: Adagio ma non troppo
!!!AIN: 1 bass 2 cello 1 cor 2 empty 2 fagot 2 tenor 1 timpa 3 tromt
!!!key:
**kern	**dynam	**kern	**kern	**kern	**kern	**kern	**kern	**kern	**kern	**kern	**text	**dynam	**kern	**text	**kern	**text	**text	**dynam
*part12	*part12	*part11	*part10	*part9	*part8	*part7	*part6	*part5	*part4	*part3	*part3	*part3	*part2	*part2	*part1	*part1	*part1	*part1
*staff12	*	*staff11	*staff10	*staff9	*staff8	*staff7	*staff6	*staff5	*staff4	*staff3	*staff3	*	*staff2	*staff2	*staff1	*staff1	*staff1	*
*Iempty	*	*Itimpa	*Iempty	*Icor	*Itromt	*Itromt	*Itromt	*Icello&Ifagot	*Icello&Ifagot	*Ibass	*	*	*Itenor	*	*Itenor	*	*	*
*I"Bassi	*	*I"Timpani in Es C G	*I"Clarini in C	*I"Corni	*I"Trombone III	*I"Trombone II	*I"Trombone I	*I"Violoncello II con Fagotto	*I"Violoncello I con Fagotto	*I"Basso	*	*	*I"Tenore II	*	*I"Tenore I	*	*	*
*I'Cb	*	*I'Timp	*I'clni	*I'cor	*I'Tbn III	*I'Tbn II	*I'Tbn I	*I'Vc II con Fg	*I'Vc I con. Fg	*I'B	*	*	*I'T II	*	*I'T I	*	*	*
*clefF4	*	*clefF4	*clefG2	*clefG2	*clefF4	*clefC4	*clefC4	*clefF4	*clefC4	*clefF4	*	*	*clefC4	*	*clefC4	*	*	*
*	*	*	*	*ITrd5c9	*	*	*	*	*	*	*	*	*	*	*	*	*	*
*k[nenandf#]	*	*k[]	*k[]	*k[b-e-a-]	*k[nbnenaf#]	*k[nbnenaf#]	*k[nbnenaf#]	*k[nbnenaf#]	*k[nbnenaf#]	*k[nbnenaf#]	*	*	*k[nbnenaf#]	*	*k[nbnenaf#]	*	*	*
*E-:	*	*	*	*	*E-:	*E-:	*E-:	*E-:	*E-:	*E-:	*	*	*E-:	*	*E-:	*	*	*
*M4/4	*	*M4/4	*M4/4	*M4/4	*M4/4	*M4/4	*M4/4	*M4/4	*M4/4	*M4/4	*	*	*M4/4	*	*M4/4	*	*	*
*met(c)	*	*met(c)	*met(c)	*met(c)	*met(c)	*met(c)	*met(c)	*met(c)	*met(c)	*met(c)	*	*	*met(c)	*	*met(c)	*	*	*
=1	=1	=1	=1	=1	=1	=1	=1	=1	=1	=1	=1	=1	=1	=1	=1	=1	=1	=1
!LO:SIC:v=znaki jak przy kluczu C	!	!	!	!	!LO:SIC:v=znaki jak przy kluczu C	!	!	!	!	!	!	!	!	!	!	!	!	!LO:DY:rj
!	!	!	!	!	!	!	!	!	!	!	!	!	!	!	!LO:TX:a:B:t=Adagio ma non troppo	!	!	!
1r	.	1r	1r	1r	1r	1r	1r	1r	1r	4.G\	Ho-	.	4.G/	Ho-	4.B\	Ho-	.	p
.	.	.	.	.	.	.	.	.	.	8G\	-sti-	.	8G/	-sti-	8B\	-sti-	.	.
.	.	.	.	.	.	.	.	.	.	4G\	-as	.	4G/	-as	4B\	-as	.	.
.	.	.	.	.	.	.	.	.	.	4G\	et	.	4G/	et	4B\	et	.	.
=2	=2	=2	=2	=2	=2	=2	=2	=2	=2	=2	=2	=2	=2	=2	=2	=2	=2	=2
1r	.	1r	1r	1r	1r	1r	1r	1r	1r	2F#\	pre-	.	2A\	pre-	(>4.d\	pre-	.	.
.	.	.	.	.	.	.	.	.	.	.	.	.	.	.	8c\)	.	.	.
.	.	.	.	.	.	.	.	.	.	4G\	-ces	.	4G/	-ces	4B\	-ces	.	.
.	.	.	.	.	.	.	.	.	.	4r	.	.	4r	.	4r	.	.	.
=3	=3	=3	=3	=3	=3	=3	=3	=3	=3	=3	=3	=3	=3	=3	=3	=3	=3	=3
1r	.	1r	1r	1r	1r	1r	1r	1r	1r	(>4E\	ti-	.	(>4G/	ti-	(>2c\^	ti-	.	.
.	.	.	.	.	.	.	.	.	.	4F#\)	.	.	4A\)	.	.	.	.	.
.	.	.	.	.	.	.	.	.	.	4G\	-bi	.	4G/	-bi	4B\)	-bi	.	.
.	.	.	.	.	.	.	.	.	.	4r	.	.	4r	.	4r	.	.	.
=4	=4	=4	=4	=4	=4	=4	=4	=4	=4	=4	=4	=4	=4	=4	=4	=4	=4	=4
1r	.	1r	1r	1r	1r	1r	1r	1r	1r	2C/	ti-	.	(>4G/	ti-	(>2e\^	ti-	.	.
.	.	.	.	.	.	.	.	.	.	.	.	.	4F#X/)	.	.	.	.	.
.	.	.	.	.	.	.	.	.	.	4BB/	-bi	.	4G/	-bi	4d\)	-bi	.	.
.	.	.	.	.	.	.	.	.	.	4r	.	.	4r	.	4r	.	.	.
=5	=5	=5	=5	=5	=5	=5	=5	=5	=5	=5	=5	=5	=5	=5	=5	=5	=5	=5
1r	.	1r	1r	1r	1r	1r	1r	1r	1r	2r	.	.	2r	.	(>4d\	lau-	.	.
.	.	.	.	.	.	.	.	.	.	.	.	.	.	.	4c\	.	.	.
.	.	.	.	.	.	.	.	.	.	4r	.	.	4r	.	4B\	.	.	.
.	.	.	.	.	.	.	.	.	.	4G#X\	lau-	.	4B\	lau-	8e\L	.	.	.
.	.	.	.	.	.	.	.	.	.	.	.	.	.	.	8d\J	.	.	.
=6	=6	=6	=6	=6	=6	=6	=6	=6	=6	=6	=6	=6	=6	=6	=6	=6	=6	=6
1r	.	1r	1r	1r	1r	1r	1r	1r	1r	4A\	.	.	4c\	.	4c\)	.	.	.
.	.	.	.	.	.	.	.	.	.	4Gn\	.	.	4B\	.	4.e\	.	.	.
.	.	.	.	.	.	.	.	.	.	4F#\	.	.	4A\	.	.	.	.	.
.	.	.	.	.	.	.	.	.	.	.	.	.	.	.	8d\	.	.	.
.	.	.	.	.	.	.	.	.	.	8E\L	.	.	(<8G/L	.	4c\	.	.	.
.	.	.	.	.	.	.	.	.	.	8F#\J	.	.	8A\J)	.	.	.	.	.
=7	=7	=7	=7	=7	=7	=7	=7	=7	=7	=7	=7	=7	=7	=7	=7	=7	=7	=7
1r	.	1r	1r	1r	1r	1r	1r	1r	1r	2G\	-dis	.	2G/	-dis	2B\	-dis	.	.
.	.	.	.	.	.	.	.	.	.	(>4F#\	of-	.	(>4A/	of-	(>4c\	of-	.	.
.	.	.	.	.	.	.	.	.	.	4G\)	.	.	4G/)	.	4B\)	.	.	.
=8	=8	=8	=8	=8	=8	=8	=8	=8	=8	=8	=8	=8	=8	=8	=8	=8	=8	=8
1r	.	1r	1r	1r	1r	1r	1r	1r	1r	4.D/	-fe-	.	4.G/	-fe-	4.B\	-fe-	.	.
.	.	.	.	.	.	.	.	.	.	8D/	-ri-	.	8F#/	-ri-	8A\	-ri-	.	.
.	.	.	.	.	.	.	.	.	.	4D/	-mus	.	4F#/	-mus	4A\	-mus	.	.
.	.	.	.	.	.	.	.	.	.	4G\	tu	.	4G/	tu	4B\	tu	.	.
=9	=9	=9	=9	=9	=9	=9	=9	=9	=9	=9	=9	=9	=9	=9	=9	=9	=9	=9
1r	.	1r	1r	1r	1r	1r	1r	1r	1r	4.G\	su-	.	4.G/	su-	4.B\	su-	.	.
.	.	.	.	.	.	.	.	.	.	8G\	-sci-	.	8G/	-sci-	8B\	-sci-	.	.
.	.	.	.	.	.	.	.	.	.	4G\	-pe	.	4G/	-pe	4B\	-pe	.	.
.	.	.	.	.	.	.	.	.	.	4G\	tu	.	4G/	tu	4B\	tu	.	.
=10	=10	=10	=10	=10	=10	=10	=10	=10	=10	=10	=10	=10	=10	=10	=10	=10	=10	=10
1r	.	1r	1r	1r	1r	1r	1r	1r	1r	4.F#\	su-	.	4.A\	su-	(>4.d\	su-	.	.
.	.	.	.	.	.	.	.	.	.	8F#\	-sci-	.	8A\	-sci-	8c\)	-sci-	.	.
.	.	.	.	.	.	.	.	.	.	4G\	-pe	.	4G/	-pe	4B\	-pe	.	.
.	.	.	.	.	.	.	.	.	.	4G\	pro	.	4G/	pro	4B\	pro	.	.
=11	=11	=11	=11	=11	=11	=11	=11	=11	=11	=11	=11	=11	=11	=11	=11	=11	=11	=11
1r	.	1r	1r	1r	1r	1r	1r	1r	1r	4E\	a-	.	4G/	a-	4c\	a-	.	.
.	.	.	.	.	.	.	.	.	.	4F#\	-ni-	.	4A/	-ni-	4c\	-ni-	.	.
.	.	.	.	.	.	.	.	.	.	4G\	-ma-	.	4G/	-ma-	4B\	-ma-	.	.
.	.	.	.	.	.	.	.	.	.	4G\	-bus	.	8AL/	-bus	8c\L	-bus	.	.
.	.	.	.	.	.	.	.	.	.	.	.	.	8B\J	.	8d\J	.	.	.
=12	=12	=12	=12	=12	=12	=12	=12	=12	=12	=12	=12	=12	=12	=12	=12	=12	=12	=12
1r	.	1r	1r	1r	1r	1r	1r	1r	1r	(>4G\	il-	.	2c\	il-	2e\	il-	.	.
.	.	.	.	.	.	.	.	.	.	4F#\	.	.	.	.	.	.	.	.
.	.	.	.	.	.	.	.	.	.	4G\)	-lis,	.	4B\	-lis,	4d\	-lis,	.	.
.	.	.	.	.	.	.	.	.	.	4r	.	.	4r	.	4r	.	.	.
=13	=13	=13	=13	=13	=13	=13	=13	=13	=13	=13	=13	=13	=13	=13	=13	=13	=13	=13
1r	.	1r	1r	1r	1r	1r	1r	1r	1r	4G\	qua-	.	2r	.	2r	.	.	.
!	!	!	!	!	!	!	!	!	!	!LO:SIC:v= nieprecyzyjnie podpisany tekst	!	!	!	!	!	!	!	!
.	.	.	.	.	.	.	.	.	.	4F#\	.	.	.	.	.	.	.	.
.	.	.	.	.	.	.	.	.	.	4E\	-rum	.	4r	.	4r	.	.	.
.	.	.	.	.	.	.	.	.	.	8A\L	ho-	.	(>4A\	qua-	(>4c\	qua-	.	.
.	.	.	.	.	.	.	.	.	.	8G\J	.	.	.	.	.	.	.	.
=14	=14	=14	=14	=14	=14	=14	=14	=14	=14	=14	=14	=14	=14	=14	=14	=14	=14	=14
!LO:LB:g=original	!	!LO:LB:g=original	!LO:LB:g=original	!LO:LB:g=original	!LO:LB:g=original	!LO:LB:g=original	!LO:LB:g=original	!LO:LB:g=original	!LO:LB:g=original	!LO:LB:g=original	!	!	!LO:LB:g=original	!	!LO:LB:g=original	!	!	!
1r	.	1r	1r	1r	1r	1r	1r	1r	1r	4F#\	-die	.	4A\)	-rum	4c\)	-rum	.	.
.	.	.	.	.	.	.	.	.	.	4G\	me-	.	4G\	ho-	4B\	ho-	.	.
.	.	.	.	.	.	.	.	.	.	4E\	-mo-	.	4G\	-di-	4c\	-di-	.	.
.	.	.	.	.	.	.	.	.	.	8D\	-ri-	.	8B\	-e	8d\	-e	.	.
.	.	.	.	.	.	.	.	.	.	8C\	-am,	.	8c\	me-	8e\	me-	.	.
=15	=15	=15	=15	=15	=15	=15	=15	=15	=15	=15	=15	=15	=15	=15	=15	=15	=15	=15
1r	.	1r	1r	1r	1r	1r	1r	1r	1r	2D\	fa-	.	4B\	-mo-	4d\	-mo-	.	.
.	.	.	.	.	.	.	.	.	.	.	.	.	8A\	-ri-	8c\	-ri-	.	.
.	.	.	.	.	.	.	.	.	.	.	.	.	8G\	-am	8B\	-am	.	.
.	.	.	.	.	.	.	.	.	.	2D\	-ci-	.	8G/L	fa-	4A\	.	.	.
.	.	.	.	.	.	.	.	.	.	.	.	.	16F#L\	.	.	.	.	.
.	.	.	.	.	.	.	.	.	.	.	.	.	16E/JJ	.	.	.	.	.
.	.	.	.	.	.	.	.	.	.	.	.	.	4F#/	-ci-	4A\	faci-	.	.
=16	=16	=16	=16	=16	=16	=16	=16	=16	=16	=16	=16	=16	=16	=16	=16	=16	=16	=16
1r	.	1r	1r	1r	1r	1r	1r	1r	1r	4E\	-mus	.	4G/	-mus	4G/	-mus	.	.
.	.	.	.	.	.	.	.	.	.	4E\	fac	.	4G/	fac	4G/	.	.	.
.	.	.	.	.	.	.	.	.	.	4E\	e-	.	4G/	e-	4G/	fac	.	.
.	.	.	.	.	.	.	.	.	.	4E\	-as,	.	4G/	-as,	4G/	eas,	.	.
=17	=17	=17	=17	=17	=17	=17	=17	=17	=17	=17	=17	=17	=17	=17	=17	=17	=17	=17
1r	.	1r	1r	1r	1r	1r	1r	1r	1r	4.D#X\	Do-	.	4.F#/	Do-	(>4.B\	Do-	.	.
.	.	.	.	.	.	.	.	.	.	8D#\	-mi-	.	8F#/	-mi-	8A\)	-mi-	.	.
.	.	.	.	.	.	.	.	.	.	4E\	-ne,	.	4E/	-ne,	4G/	-ne,	.	.
.	.	.	.	.	.	.	.	.	.	4r	.	.	4r	.	4r	.	.	.
=18	=18	=18	=18	=18	=18	=18	=18	=18	=18	=18	=18	=18	=18	=18	=18	=18	=18	=18
1r	.	1r	1r	1r	1r	1r	1r	1r	1r	4.C/	Do-	.	4.G/	Do-	4.e\	Do-	.	.
.	.	.	.	.	.	.	.	.	.	8C/	-mi-	.	8G/	-mi-	8e\	-mi-	.	.
.	.	.	.	.	.	.	.	.	.	4BB/	-ne	.	4G/	-ne	4d\	-ne	.	.
.	.	.	.	.	.	.	.	.	.	4G\	tran-	.	4B\	tran-	4d\	tran-	.	.
=19	=19	=19	=19	=19	=19	=19	=19	=19	=19	=19	=19	=19	=19	=19	=19	=19	=19	=19
1r	.	1r	1r	1r	1r	1r	1r	1r	1r	(>4.F#\	-si-	.	(>4.A\	-si-	(>4d\	-si-	.	.
!	!	!	!	!	!	!	!	!	!	!	!	!	!	!	!LO:SIC:v=linią przerywaną zaznaczone podłożenie tekstu.Dotyczy wielu miejsc	!	!	!
.	.	.	.	.	.	.	.	.	.	.	.	.	.	.	4c\)	.	.	.
.	.	.	.	.	.	.	.	.	.	8D\)	.	.	8F#/)	.	.	.	.	.
.	.	.	.	.	.	.	.	.	.	4.E\	-re	.	4G/	-re	8B\L	-re	.	.
.	.	.	.	.	.	.	.	.	.	.	.	.	.	.	8e\J	.	.	.
.	.	.	.	.	.	.	.	.	.	.	.	.	4G/	ad	8c\L	ad	.	.
.	.	.	.	.	.	.	.	.	.	8C/	ad	.	.	.	8A\J	.	.	.
=20	=20	=20	=20	=20	=20	=20	=20	=20	=20	=20	=20	=20	=20	=20	=20	=20	=20	=20
1r	.	1r	1r	1r	1r	1r	1r	1r	1r	1D\	vi-	.	2G/	vi-	(>2B\	vi-	.	.
.	.	.	.	.	.	.	.	.	.	.	.	.	(<4.F#/	.	4.A\	.	.	.
.	.	.	.	.	.	.	.	.	.	.	.	.	8G/)	.	8G/)	.	.	.
=21||	=21||	=21||	=21||	=21||	=21||	=21||	=21||	=21||	=21||	=21||	=21||	=21||	=21||	=21||	=21||	=21||	=21||	=21||
*k[b-e-a-]	*	*k[]	*k[]	*k[b-e-a-]	*k[b-e-a-]	*k[b-e-a-]	*k[b-e-a-]	*k[b-e-a-]	*k[b-e-a-]	*k[b-e-a-]	*	*	*k[b-e-a-]	*	*k[b-e-a-]	*	*	*
*c:	*	*	*	*c:	*c:	*c:	*c:	*c:	*c:	*c:	*	*	*c:	*	*c:	*	*	*
*M3/4	*	*M3/4	*M3/4	*M3/4	*M3/4	*M3/4	*M3/4	*M3/4	*M3/4	*M3/4	*	*	*M3/4	*	*M3/4	*	*	*
!	!	!	!	!	!	!	!	!	!	!	!	!	!	!	!LO:TX:a:B:t=Tempo I.o un piu di moto	!	!	!
4.r;	.	4.r;	4.r;	4.r;	4.r;	4.r;	4.r;	4.r;	4.r;	4.G\;	-tam.	.	4.G/;	-tam.	4.G/;	-tam.	.	.
8d\L	f	8r	8r	8r	8D\L	8r	8r	8r	8r	8d\	quam	f	8r	.	8r	.	.	.
8d\	.	4r	4r	4r	8D\	4r	4r	4r	4r	8d\	o-	.	4r	.	4r	.	.	.
8d\J	.	.	.	.	8D\J	.	.	.	.	8d\	-lim	.	.	.	.	.	.	.
=22	=22	=22	=22	=22	=22	=22	=22	=22	=22	=22	=22	=22	=22	=22	=22	=22	=22	=22
8.d\L	.	2.r	2.r	2.r	8.DL\	4r	2.r	4r	2.r	8.d\	A-	.	4r	.	2.r	.	.	.
16c\Jk	.	.	.	.	16C/Jk	.	.	.	.	16c\	-bra-	.	.	.	.	.	.	.
4B-\	.	.	.	.	4BB-/	8r	.	8r	.	4B-\	-chae	.	8r	.	.	.	.	.
.	.	.	.	.	.	8d\L	.	8d\L	.	.	.	.	8d\	quam	.	.	.	.
!	!	!	!	!	!	!	!	!	!	!	!	!	!LO:SIC:v=linią przerywaną zaznaczone podłożenie tekstu.Dotyczy wielu miejsc	!	!	!	!	!
4G\	.	.	.	.	4G\	8d\	.	8d\	.	4G\	quam	.	8d\	o-	.	.	.	.
.	.	.	.	.	.	8d\J	.	8d\J	.	.	.	.	8d\	-lim	.	.	.	.
=23	=23	=23	=23	=23	=23	=23	=23	=23	=23	=23	=23	=23	=23	=23	=23	=23	=23	=23
4F#X\	.	2.r	2.r	2.r	4F#X\	8.d\L	4r	8.d\L	4r	(>4F#X\	o-	.	8.d\	A-	4r	.	.	.
.	.	.	.	.	.	16c\Jk	.	16c\Jk	.	.	.	.	16c\	-bra-	.	.	.	.
4G\	.	.	.	.	4G\	4B-\	8r	4B-\	8r	4G\)	.	.	4B-\	-chae	8r	.	.	.
.	.	.	.	.	.	.	8d\L	.	8d\L	.	.	.	.	.	8d\	quam	.	.
4Fn\	.	.	.	.	4Fn\	4An\	8d\	4An\	8d\	4Fn\	-lim	.	(>4An\	pro-	8d\	o-	.	.
.	.	.	.	.	.	.	8d\J	.	8d\J	.	.	.	.	.	8d\	-lim	.	.
=24	=24	=24	=24	=24	=24	=24	=24	=24	=24	=24	=24	=24	=24	=24	=24	=24	=24	=24
!	!	!	!	!	!	!	!	!	!	!	!	!	!	!	!LO:SIC:v=linią przerywaną zaznaczone podłożenie tekstu.Dotyczy wielu miejsc	!	!	!
4.E-\	.	2.r	2.r	2.r	4.E-\	2.G/	8.d\L	2G\	8.d\L	(>4.E-\	pro-	.	2G/)	.	8.d\	A-	.	.
.	.	.	.	.	.	.	16c\Jk	.	16c\Jk	.	.	.	.	.	16c\	-bra-	.	.
.	.	.	.	.	.	.	4c\	.	4c\	.	.	.	.	.	4c\	-hae	.	.
8D\	.	.	.	.	8D\	.	.	.	.	8D\)	.	.	.	.	.	.	.	.
4C\	.	.	.	.	4C/	.	8e-\L	4G\	8e-\L	4C/	-mi-	.	4G/	-mi-	8e-\	pro-	.	.
.	.	.	.	.	.	.	8c\J	.	8c\J	.	.	.	.	.	8c\	-mi-	.	.
=25	=25	=25	=25	=25	=25	=25	=25	=25	=25	=25	=25	=25	=25	=25	=25	=25	=25	=25
2.D\	.	2.r	2.r	2.r	2.D\	2G/	2B-\	2G\	2B-\	2.D\	-si-	.	(<2G/	-si-	(>2B-\	-si-	.	.
.	.	.	.	.	.	4F#X/	4An\	4F#X\	4An\	.	.	.	4F#X/)	.	4An\)	.	.	.
=26	=26	=26	=26	=26	=26	=26	=26	=26	=26	=26	=26	=26	=26	=26	=26	=26	=26	=26
2E-\	.	2.r	2.r	2.r	2E-\	4.G/	4.G/	4.G\	4.G/	2E-\	-sti,	.	4.G/	-sti,	4.G/	-sti,	.	.
.	.	.	.	.	.	8r	8r	8r	8e-\L	.	.	.	8r	.	8e-\	quam	.	.
4r	.	.	.	.	4r	4r	4r	4r	8e-\	4r	.	.	4r	.	8e-\	o-	.	.
.	.	.	.	.	.	.	.	.	8e-\J	.	.	.	.	.	8e-\	-lim	.	.
=27	=27	=27	=27	=27	=27	=27	=27	=27	=27	=27	=27	=27	=27	=27	=27	=27	=27	=27
!LO:LB:g=original	!	!LO:LB:g=original	!LO:LB:g=original	!LO:LB:g=original	!LO:LB:g=original	!LO:LB:g=original	!LO:LB:g=original	!LO:LB:g=original	!LO:LB:g=original	!LO:LB:g=original	!	!	!LO:LB:g=original	!	!LO:LB:g=original	!	!	!
2.r	.	2.r	2.r	2.r	2.r	2.r	2.r	4r	8.e-\L	2.r	.	.	4r	.	8.e-\	A-	.	.
.	.	.	.	.	.	.	.	.	16d\Jk	.	.	.	.	.	16d\	-bra-	.	.
.	.	.	.	.	.	.	.	8r	4c\	.	.	.	8r	.	4c\	-hae	.	.
.	.	.	.	.	.	.	.	8c\L	.	.	.	.	8c\	quam	.	.	.	.
.	.	.	.	.	.	.	.	8c\	4e-\	.	.	.	8c\	o-	4e-\	quam	.	.
.	.	.	.	.	.	.	.	8c\J	.	.	.	.	8c\	-lim	.	.	.	.
=28	=28	=28	=28	=28	=28	=28	=28	=28	=28	=28	=28	=28	=28	=28	=28	=28	=28	=28
4r	.	2.r	2.r	2.r	2.r	2.r	2.r	8.c\L	2e-\	4r	.	.	8.c\	A-	2e-\	o-	.	.
.	.	.	.	.	.	.	.	16B-\Jk	.	.	.	.	16B-\	-bra-	.	.	.	.
8r	.	.	.	.	.	.	.	4A-X\	.	8r	.	.	4A-X\	-hae	.	.	.	.
8A-X\L	.	.	.	.	.	.	.	.	.	8A-X\	quam	.	.	.	.	.	.	.
8A-\	.	.	.	.	.	.	.	[4c\	[4f\	8A-\	o-	.	4c\	quam	4f\	-lim	.	.
8A-\J	.	.	.	.	.	.	.	.	.	8A-\	-lim	.	.	.	.	.	.	.
=29	=29	=29	=29	=29	=29	=29	=29	=29	=29	=29	=29	=29	=29	=29	=29	=29	=29	=29
8.A-\L	.	2.r	2.r	2.r	2.r	2.r	2.r	8.c\L]	2f\]	8.A-\	A-	.	8.c\L	o-	2f\	A-	.	.
16G\Jk	.	.	.	.	.	.	.	16B-\Jk	.	16G\	-bra-	.	16B-\Jk	.	.	.	.	.
8F\	.	.	.	.	.	.	.	8A-\	.	8F\	-hae	.	8A-\	-lim	.	.	.	.
8F\L	.	.	.	.	.	.	.	8A-\L	.	8F\	quam	.	8A-\	quam	.	.	.	.
8G\	.	.	.	.	.	.	.	8B-\	(>4e-\	8G\	o-	.	8B-\	o-	(>4e-\	-bra-	.	.
!	!	!	!	!	!	!	!	!	!	!LO:SIC:v=linią przerywaną zaznaczone podłożenie tekstu.Dotyczy wielu miejsc	!	!	!	!	!	!	!	!
8An\J	.	.	.	.	.	.	.	8c\J	.	8An\	-lim	.	8c\	-lim	.	.	.	.
=30	=30	=30	=30	=30	=30	=30	=30	=30	=30	=30	=30	=30	=30	=30	=30	=30	=30	=30
8.B-\L	.	2.r	2.r	2.r	2.r	2.r	2.r	4.c\	4.e-\	8.B-\	A-	.	4.c\	A-	4.e-\	-hae	.	.
!LO:TX:t=P:problem=mixed beam	!	!	!	!	!	!	!	!	!	!	!	!	!	!	!	!	!	!
16BB-/Jk	.	.	.	.	.	.	.	.	.	16BB-/	-bra-	.	.	.	.	.	.	.
8BB-/	.	.	.	.	.	.	.	.	.	8BB-/	-hae	.	.	.	.	.	.	.
!	!	!	!	!	!	!	!	!	!	!LO:SIC:v=quam dopisane w nawiasie)	!	!	!	!	!	!	!	!
8BB-/'L	.	.	.	.	.	.	.	8B-\	8d\)	8BB-/	quam	.	8B-\	-bra-	8d\)	pro-	.	.
8C/'	.	.	.	.	.	.	.	4B-\	8e-\L	8C/	o-	.	4B-\	-hae	8e-\	-mi-	.	.
8D\'J	.	.	.	.	.	.	.	.	[8f\J	8D\	-lim	.	.	.	8f\	-si-	.	.
=31	=31	=31	=31	=31	=31	=31	=31	=31	=31	=31	=31	=31	=31	=31	=31	=31	=31	=31
2E-\	.	2.r	2.r	2.r	2.r	2.r	2.r	2G\	8.f\L]	2E-\	A-	.	2G/	quam	8.f\L	-sti,	.	.
.	.	.	.	.	.	.	.	.	16g\Jk	.	.	.	.	.	16g\Jk	.	.	.
.	.	.	.	.	.	.	.	.	8e-\	.	.	.	.	.	8e-\	.	.	.
!	!	!	!	!	!	!	!	!	!	!	!	!	!	!	!LO:SIC:v= niejednoznaczne podpisanie tekstu	!	!	!
.	.	.	.	.	.	.	.	.	8e-\L	.	.	.	.	.	8e-\	quam	.	.
4G\	.	.	.	.	.	.	.	4B-\	8e-\	4G\	-bra-	.	4B-\	o-	8e-\	o-	.	.
.	.	.	.	.	.	.	.	.	[8d\J	.	.	.	.	.	8d\	-lim	.	.
=32	=32	=32	=32	=32	=32	=32	=32	=32	=32	=32	=32	=32	=32	=32	=32	=32	=32	=32
2A-\	.	2.r	2.r	2.r	2.r	2.r	2.r	2A-\	8.d\L]	2A-\	-hae	.	2A-\	-lim	8.d\	A-	.	.
.	.	.	.	.	.	.	.	.	16c\Jk	.	.	.	.	.	16c\	-bra-	.	.
.	.	.	.	.	.	.	.	.	4c\	.	.	.	.	.	4c\	-hae	.	.
8.A-\L	.	.	.	.	.	.	.	8.c\L	8.f\L	8.A-\	pro-	.	8.c\	pro-	8.f\	pro-	.	.
16G\Jk	.	.	.	.	.	.	.	16B-\Jk	16e-\Jk	16G\	-mi-	.	16B-\	-mi-	16e-\	-mi-	.	.
=33	=33	=33	=33	=33	=33	=33	=33	=33	=33	=33	=33	=33	=33	=33	=33	=33	=33	=33
4F\	.	2.r	2.r	2.r	4r	4r	4r	4A-\	4d\	4F\	-si-	.	4A-\	-si-	4d\	-si-	.	.
4E-\	.	.	.	.	4r	4r	4r	4G\	4e-\	4E-\	-sti	.	4G/	-sti	4e-\	-sti	.	.
4G\	.	.	.	.	4GG\ 4G\	4B-\	4e-\	4B-\	4e-\	4G\	et	.	4B-\	et	4e-\	et	.	.
=34	=34	=34	=34	=34	=34	=34	=34	=34	=34	=34	=34	=34	=34	=34	=34	=34	=34	=34
4.A-\	.	2.r	2.r	2.r	4AA-\ 4A-\	4.c\	4.e-\	4.c\	4.e-\	4.A-\	se-	.	4.c\	se-	4.e-\	se-	.	.
*	*	*	*	*	*^	*	*	*	*	*	*	*	*	*	*	*	*	*
.	.	.	.	.	2AA-/	2AA-\	.	.	.	.	.	.	.	.	.	.	.	.	.
8AA-/	.	.	.	.	.	.	8B-\	8d\	8B-\	8d\	8AA-/	-mi-	.	8B-\	-mi-	8d\	-mi-	.	.
4AA-/	.	.	.	.	.	.	4A-\	4c\	4A-\	4c\	4AA-/	-ni	.	4A-\	-ni	4c\	-ni	.	.
*	*	*	*	*	*v	*v	*	*	*	*	*	*	*	*	*	*	*	*	*
=35	=35	=35	=35	=35	=35	=35	=35	=35	=35	=35	=35	=35	=35	=35	=35	=35	=35	=35
2.BB-/	.	2.r	2.r	4r	2.BB-/	2G/	2B-\	2G\	2B-\	2.BB-/	e-	.	(>2G/	e-	(>2B-\	e-	.	.
.	.	.	.	4e-/ 4g/	.	.	.	.	.	.	.	.	.	.	.	.	.	.
.	.	.	.	4B-/ 4f/	.	8A-\L	8c\L	8A-\L	8c\L	.	.	.	8A-L\	.	8c\L	.	.	.
.	.	.	.	.	.	8F/J	8d\J	8F\J	8d\J	.	.	.	8F/J)	.	8d\J)	.	.	.
=36	=36	=36	=36	=36	=36	=36	=36	=36	=36	=36	=36	=36	=36	=36	=36	=36	=36	=36
*	*	*tremolo	*	*	*	*	*	*	*	*	*	*	*	*	*	*	*	*
4.E-\	.	16E-y\LL	2.r	2G/ 2e-/	4.E-\	2G/	2e-\	2G\	2e-\	4.E-\	-jus	.	2G/	-jus	2e-\	-jus	.	.
.	.	16E-\	.	.	.	.	.	.	.	.	.	.	.	.	.	.	.	.
.	.	16E-\	.	.	.	.	.	.	.	.	.	.	.	.	.	.	.	.
.	.	16E-\JJ	.	.	.	.	.	.	.	.	.	.	.	.	.	.	.	.
.	.	8E-\	.	.	.	.	.	.	.	.	.	.	.	.	.	.	.	.
8C/L	.	8r	.	.	8C/L	.	.	.	.	8C/	quam	.	.	.	.	.	.	.
8C/	.	4r	.	4r	8C/	4r	4r	4r	4r	8C/	o-	.	4r	.	4r	.	.	.
8C/J	.	.	.	.	8C/J	.	.	.	.	8C/	-lim	.	.	.	.	.	.	.
=37	=37	=37	=37	=37	=37	=37	=37	=37	=37	=37	=37	=37	=37	=37	=37	=37	=37	=37
8.A-\L	.	2.r	2.r	2.r	4A-\	4r	4r	8r	8r	8.A-\	A-	.	8r	.	8r	.	.	.
!	!	!	!	!	!	!	!	!	!	!	!	!	!LO:SIC:v:s=8B	!	!	!	!	!
.	.	.	.	.	.	.	.	8Bn\L	8d\L	.	.	.	8B-\	quam	8d\	quam	.	.
16A-\Jk	.	.	.	.	.	.	.	.	.	16A-\	-bra-	.	.	.	.	.	.	.
!	!	!	!	!	!	!	!	!	!	!	!	!	!LO:SIC:v:s=8B	!	!	!	!	!
4G\	.	.	.	.	4G\	8r	8r	8B\	8d\	4G\	-hae	.	8B-\L	o-	8d\	o-	.	.
!	!	!	!	!	!	!	!	!	!	!	!	!	!LO:SIC:v:s=8B	!	!	!	!	!
.	.	.	.	.	.	8Bn\L	8d\L	8B\J	8d\J	.	.	.	8B-\J	-lim	8d\	-lim	.	.
8.F#X\L	.	.	.	.	8.F#X\L	8.c\	8.e-\	8.c\L	8.e-\^L	8.F#X\	pro-	.	8.c\L	pro-	8.e-\^	pro-	.	.
!	!	!	!	!	!	!	!	!	!	!	!	!	!LO:SIC:v:s=16B	!	!	!	!	!
16G\Jk	.	.	.	.	16G\Jk	16B\Jk	16d\Jk	16B\Jk	16d\Jk	16G\	-mi-	.	16B-\Jk	-mi-	16d\	-mi-	.	.
=38	=38	=38	=38	=38	=38	=38	=38	=38	=38	=38	=38	=38	=38	=38	=38	=38	=38	=38
!	!	!	!	!	!	!	!	!	!	!	!	!	!	!	!LO:TX:a:i:t=dolce	!	!	!
4E-\	.	2.r	2.r	2.r	4E-\	4Bn\	4d\	4Bn\	4g\	4E-\	-si-	.	4Bn\	-si-	4g\	-si-	.	.
4C/	.	.	.	.	4C/	4c\	4e-\	4c\	4e-\	4C/	-sti	.	4c\	-sti	4e-\	-sti	.	.
4D/	.	.	.	.	4D\	4A-X\	4f\	4A-X\	8.c\L	4D\	et	.	4A-X\	et	8.c\L	et	.	.
.	.	.	.	.	.	.	.	.	16B-\Jk	.	.	.	.	.	16B-\Jk	.	.	.
=39	=39	=39	=39	=39	=39	=39	=39	=39	=39	=39	=39	=39	=39	=39	=39	=39	=39	=39
*	*	*	*	*^	*^	*	*	*	*	*	*	*	*	*	*	*	*	*
!LO:LB:g=original	!	!LO:LB:g=original	!LO:LB:g=original	!LO:LB:g=original	!LO:LB:g=original	!LO:LB:g=original	!LO:LB:g=original	!LO:LB:g=original	!LO:LB:g=original	!LO:LB:g=original	!LO:LB:g=original	!LO:LB:g=original	!	!	!LO:LB:g=original	!	!LO:LB:g=original	!	!	!
4E-\	.	2.r	2.r	2e-/	2e-\	2E-/	2E-\	4.G/	4.e-\	4.G\	4.B-\	4.E-\	se-	.	4.G/	se-	4.B-\	se-	.	.
4E-\	.	.	.	.	.	.	.	.	.	.	.	.	.	.	.	.	.	.	.	.
.	.	.	.	.	.	.	.	8A-/	8c\	8A-\	8c\	8E-\	-mi-	.	8A-\	-mi-	8c\	-mi-	.	.
4BB-/	.	.	.	4B-/ 4f/	4ryy	4BB-/	4ryy	4F/	4d\	4F\	4d\	4BB-/	-ni	.	4F/	-ni	4d\	-ni	.	.
*	*	*	*	*v	*v	*	*	*	*	*	*	*	*	*	*	*	*	*	*	*
*	*	*	*	*	*v	*v	*	*	*	*	*	*	*	*	*	*	*	*	*
=40	=40	=40	=40	=40	=40	=40	=40	=40	=40	=40	=40	=40	=40	=40	=40	=40	=40	=40
4C/	.	16C/LL	2c/	2G/ 2e-/	4.C/	2E-/	2e-\	4E-\	4e-\	4C/	e-	.	4E-/	e-	4e-\	e-	.	.
.	.	16C/	.	.	.	.	.	.	.	.	.	.	.	.	.	.	.	.
.	.	16C/	.	.	.	.	.	.	.	.	.	.	.	.	.	.	.	.
.	.	16C/JJ	.	.	.	.	.	.	.	.	.	.	.	.	.	.	.	.
8C/	.	8C/	.	.	.	.	.	8E-\	8e-\	8C/	-jus	.	8E-/	-jus	8e-\	-jus	.	.
8C/L	.	8r	.	.	8C/L	.	.	8r	8r	8C/	quam	.	8r	.	8r	.	.	.
8C/	.	4r	4r	4r	8C/	4r	4r	4r	4r	8C/	o-	.	4r	.	4r	.	.	.
8C/J	.	.	.	.	8C/J	.	.	.	.	8C/	-lim	.	.	.	.	.	.	.
=41	=41	=41	=41	=41	=41	=41	=41	=41	=41	=41	=41	=41	=41	=41	=41	=41	=41	=41
8.A-\L	.	2.r	2.r	2.r	4A-\	4r	4r	8r	8r	8.A-\	A-	.	8r	.	8r	.	.	.
.	.	.	.	.	.	.	.	8Bn\L	8d\L	.	.	.	8Bn\	quam	8d\	quam	.	.
16A-\Jk	.	.	.	.	.	.	.	.	.	16A-\	-bra-	.	.	.	.	.	.	.
4G\	.	.	.	.	4G\	8r	8r	8B\	8d\	4G\	-hae	.	8B\	o-	8d\	o-	.	.
.	.	.	.	.	.	8Bn\L	8d\L	8B\J	8d\J	.	.	.	8B\	-lim	8d\	-lim	.	.
8.F#X\L	.	.	.	.	8.F#X\L	8.c\	8.e-\	8.c\L	8.e-\L	8.F#X\	pro-	.	8.c\	pro-	8.e-\	pro-	.	.
16G\Jk	.	.	.	.	16G\Jk	16B\Jk	16d\Jk	16B\Jk	16d\Jk	16G\	-mi-	.	16B\	-mi-	16d\	-mi-	.	.
=42	=42	=42	=42	=42	=42	=42	=42	=42	=42	=42	=42	=42	=42	=42	=42	=42	=42	=42
4E-\	.	2.r	2.r	2.r	4E-\	4Bn\	4d\	4Bn\	4g\	4E-\	-si-	.	4Bn\	-si-	4g\	-si-	.	.
4C/	.	.	.	.	4C/	4c\	4e-\	4c\	4e-\	4C/	-sti	.	4c\	-sti	4e-\	-sti	.	.
4D\	.	.	.	.	4D\	4A-/	4f\	4A-X\	8.c\L	4D/	et	.	4A-X\	et	8.c\L	et	.	.
.	.	.	.	.	.	.	.	.	16B-\Jk	.	.	.	.	.	16B-\Jk	.	.	.
=43	=43	=43	=43	=43	=43	=43	=43	=43	=43	=43	=43	=43	=43	=43	=43	=43	=43	=43
4E-\	.	2.r	2.r	2e-/	2E-\	4.G/	4.e-\	4.G\	4.B-\	4E-\	se-	.	4.G/	se-	4.B-\	se-	.	.
4E-\	.	.	.	.	.	.	.	.	.	4E-\	-mi-	.	.	.	.	.	.	.
.	.	.	.	.	.	8A-/	8c\	8A-\	8c\	.	.	.	8A-\	-mi-	8c\	-mi-	.	.
*	*	*	*	*^	*	*	*	*	*	*	*	*	*	*	*	*	*	*
4BB-/	.	.	.	4f/	4B-\	4BB-/	4F/	4d\	4F\	4d\	4BB-/	-ni	.	4F/	-ni	4d\	-ni	.	.
*	*	*	*	*v	*v	*	*	*	*	*	*	*	*	*	*	*	*	*	*
=44	=44	=44	=44	=44	=44	=44	=44	=44	=44	=44	=44	=44	=44	=44	=44	=44	=44	=44
2C/	.	16C/LL	2c/	2G/ 2e-/	2C/	2E-/	2e-\	4E-\	2e-\	(<2C/	e-	.	(>4E-/	e-	2e-\	e-	.	.
.	.	16C/	.	.	.	.	.	.	.	.	.	.	.	.	.	.	.	.
.	.	16C/	.	.	.	.	.	.	.	.	.	.	.	.	.	.	.	.
.	.	16C/JJ	.	.	.	.	.	.	.	.	.	.	.	.	.	.	.	.
.	.	8C/	.	.	.	.	.	4e-\	.	.	.	.	4e-\	.	.	.	.	.
.	.	8r	.	.	.	.	.	.	.	.	.	.	.	.	.	.	.	.
4BB-/	.	4r	4r	8.B-/L 8.f/	4BB-/	4F/	8.d\L	8.d\L	8.f\L	4BB-/)	.	.	8.d\L)	.	8.f\L	.	.	.
.	.	.	.	16e-/Jk	.	.	16e-\Jk	16e-\Jk	16g\Jk	.	.	.	16e-\Jk	.	16g\Jk	.	.	.
=45	=45	=45	=45	=45	=45	=45	=45	=45	=45	=45	=45	=45	=45	=45	=45	=45	=45	=45
2E-\	.	2.r	2.r	2e-/ 2g/	2E-\	2G/	2e-\	2e-\	2g\	2E-\	-jus	.	2e-\	-jus	2g\	-jus	.	.
4r	.	.	.	4r	4r	4r	4r	4G\	4B-\	4r	.	.	4G/	et	4B-\	e-	.	.
=46	=46	=46	=46	=46	=46	=46	=46	=46	=46	=46	=46	=46	=46	=46	=46	=46	=46	=46
4r	.	2.r	2.r	2.r	2.r	2.r	2.r	4.G\	4.B-\	4r	.	.	4.G/	se-	4.B-\	se-	.	.
4r	.	.	.	.	.	.	.	.	.	4r	.	.	.	.	.	.	.	.
.	.	.	.	.	.	.	.	8A-\	8c\	.	.	.	8A-\	-mi-	8c\	-mi-	.	.
8E-\L	.	.	.	.	.	.	.	4G\	4B-\	8E-\L	et	.	4G/	-ni	4B-\	-ni	.	.
8G\J	.	.	.	.	.	.	.	.	.	8G\J	.	.	.	.	.	.	.	.
=47	=47	=47	=47	=47	=47	=47	=47	=47	=47	=47	=47	=47	=47	=47	=47	=47	=47	=47
4.B-\	.	2.r	2.b-X\	4r	2.r	2.r	2.r	2G\	2B-\	4.BB-\ 4.B-\	se-	.	2G/	e-	2B-\	e-	.	.
.	.	.	.	4e-/ 4g/	.	.	.	.	.	.	.	.	.	.	.	.	.	.
8BB-/	.	.	.	.	.	.	.	.	.	8BB-/	-mi-	.	.	.	.	.	.	.
4BB-/	.	.	.	4B-/ 4f/	.	.	.	4F\	4d\	4BB-/	-ni	.	4F/	.	4d\	.	.	.
=48	=48	=48	=48	=48	=48	=48	=48	=48	=48	=48	=48	=48	=48	=48	=48	=48	=48	=48
2.E-\	.	16E-y\LL	2b-X\	2G/ 2e-/	2.r	4r	4r	2G\	2e-\	2.E-\	e-	.	2G/	-jus	2e-\	-jus	.	.
.	.	16E-\	.	.	.	.	.	.	.	.	.	.	.	.	.	.	.	.
.	.	16E-\	.	.	.	.	.	.	.	.	.	.	.	.	.	.	.	.
.	.	16E-\	.	.	.	.	.	.	.	.	.	.	.	.	.	.	.	.
.	.	16E-\	.	.	.	4r	4r	.	.	.	.	.	.	.	.	.	.	.
.	.	16E-\	.	.	.	.	.	.	.	.	.	.	.	.	.	.	.	.
.	.	16E-\	.	.	.	.	.	.	.	.	.	.	.	.	.	.	.	.
.	.	16E-\	.	.	.	.	.	.	.	.	.	.	.	.	.	.	.	.
.	.	16E-\	4r	4r	.	4G/	4B-\	4G\	4B-\	.	.	.	4G/	et	4B-\	et	.	.
.	.	16E-\	.	.	.	.	.	.	.	.	.	.	.	.	.	.	.	.
.	.	16E-\	.	.	.	.	.	.	.	.	.	.	.	.	.	.	.	.
.	.	16E-\JJ	.	.	.	.	.	.	.	.	.	.	.	.	.	.	.	.
=49	=49	=49	=49	=49	=49	=49	=49	=49	=49	=49	=49	=49	=49	=49	=49	=49	=49	=49
*	*	*	*	*	*	*	*	*	*	*	*	*	*	*	*^	*	*	*
2E-\	.	16E-y\LL	2.r	4r	2.E-\	4.G/	4.B-\	4.G\	4.B-\	2E-\	-jus	.	4.G/	se-	4.B-/	4.ryy	se-	.	.
.	.	16E-\	.	.	.	.	.	.	.	.	.	.	.	.	.	.	.	.	.
.	.	16E-\	.	.	.	.	.	.	.	.	.	.	.	.	.	.	.	.	.
.	.	16E-\	.	.	.	.	.	.	.	.	.	.	.	.	.	.	.	.	.
.	.	16E-\	.	4r	.	.	.	.	.	.	.	.	.	.	.	.	.	.	.
.	.	16E-\	.	.	.	.	.	.	.	.	.	.	.	.	.	.	.	.	.
.	.	16E-\	.	.	.	8A-\	8c\	8A-\	8c\	.	.	.	8A-/	-mi-	8c/	8ryy	-mi-	.	.
.	.	16E-\	.	.	.	.	.	.	.	.	.	.	.	.	.	.	.	.	.
!	!	!	!	!	!	!	!	!	!	!	!	!	!	!	!LO:TX:a:t=2	!	!	!	!
!	!	!	!	!	!	!	!	!	!	!	!	!	!	!	!LO:TX:t=P:problem=tekst nad systemem	!	!	!	!
4E-\	.	16E-\	.	4E-/ 4e-/	.	4G/	4B-\	4G\	4B-\	4E-\	et	.	4G/	-ni	4e-/	4B-\	-ni	et	.
.	.	16E-\	.	.	.	.	.	.	.	.	.	.	.	.	.	.	.	.	.
.	.	16E-\	.	.	.	.	.	.	.	.	.	.	.	.	.	.	.	.	.
.	.	16E-\JJ	.	.	.	.	.	.	.	.	.	.	.	.	.	.	.	.	.
=50	=50	=50	=50	=50	=50	=50	=50	=50	=50	=50	=50	=50	=50	=50	=50	=50	=50	=50	=50
4.AA-/	.	16E-y\LL	2.r	4.E-/ 4.e-/	2AA-/	2.A-\	2.c\	2.A-\	2.c\	4.AA-/	se-	.	2.A-\	e-	4.e-/	2.c\	e-	se-	.
.	.	16E-\	.	.	.	.	.	.	.	.	.	.	.	.	.	.	.	.	.
.	.	16E-\	.	.	.	.	.	.	.	.	.	.	.	.	.	.	.	.	.
.	.	16E-\	.	.	.	.	.	.	.	.	.	.	.	.	.	.	.	.	.
.	.	16E-\	.	.	.	.	.	.	.	.	.	.	.	.	.	.	.	.	.
.	.	16E-\	.	.	.	.	.	.	.	.	.	.	.	.	.	.	.	.	.
8AA-/	.	16E-\	.	8E-/ 8e-/	.	.	.	.	.	8AA-/	-mi-	.	.	.	8e-/	.	.	-mi-	.
.	.	16E-\	.	.	.	.	.	.	.	.	.	.	.	.	.	.	.	.	.
4C/	.	16E-\	.	4E-/ 4e-/	4C/	.	.	.	.	4C/	-ni	.	.	.	4e-/	.	.	-ni	.
.	.	16E-\	.	.	.	.	.	.	.	.	.	.	.	.	.	.	.	.	.
.	.	16E-\	.	.	.	.	.	.	.	.	.	.	.	.	.	.	.	.	.
.	.	16E-\JJ	.	.	.	.	.	.	.	.	.	.	.	.	.	.	.	.	.
=51	=51	=51	=51	=51	=51	=51	=51	=51	=51	=51	=51	=51	=51	=51	=51	=51	=51	=51	=51
!	!	!	!	!	!LO:N:vis=2	!	!	!	!	!	!	!	!	!	!	!	!	!	!
2.E-\	.	16E-y\LL	2.b-X\	2.E-/ 2.e-/	2.E-\	2A-\	2c\	2A-\	2c\	2.E-\	e-	.	2A-\	.	2.e-/	2c\	.	e-	.
.	.	16E-\	.	.	.	.	.	.	.	.	.	.	.	.	.	.	.	.	.
.	.	16E-\	.	.	.	.	.	.	.	.	.	.	.	.	.	.	.	.	.
.	.	16E-\	.	.	.	.	.	.	.	.	.	.	.	.	.	.	.	.	.
.	.	16E-\	.	.	.	.	.	.	.	.	.	.	.	.	.	.	.	.	.
.	.	16E-\	.	.	.	.	.	.	.	.	.	.	.	.	.	.	.	.	.
.	.	16E-\	.	.	.	.	.	.	.	.	.	.	.	.	.	.	.	.	.
.	.	16E-\	.	.	.	.	.	.	.	.	.	.	.	.	.	.	.	.	.
.	.	16E-\	.	.	.	8A-L\	8.c\L	8.A-\L	8c\L	.	.	.	8A-L\	.	.	8c\L	.	.	.
.	.	16E-\	.	.	.	.	.	.	.	.	.	.	.	.	.	.	.	.	.
.	.	16E-\	.	.	.	8G/J	.	.	8B-\J	.	.	.	8G/J	.	.	8B-\J	.	.	.
.	.	16E-\JJ	.	.	.	.	16B-\Jk	16G\Jk	.	.	.	.	.	.	.	.	.	.	.
=52	=52	=52	=52	=52	=52	=52	=52	=52	=52	=52	=52	=52	=52	=52	=52	=52	=52	=52	=52
0E-\	.	0E-y\	0b-X\	0E-/ 0e-/	0E-\	0G/	0B-\	0G\	0B-\	0E-\	-jus.	.	0G/	-jus.	0e-/	0B-\	-jus.	-jus.	.
*	*	*	*	*	*	*	*	*	*	*	*	*	*	*	*v	*v	*	*	*
==	==	==	==	==	==	==	==	==	==	==	==	==	==	==	==	==	==	==
*-	*-	*-	*-	*-	*-	*-	*-	*-	*-	*-	*-	*-	*-	*-	*-	*-	*-	*-
!!!system-decoration: [(s1,s2,s3,s4,s5)][(s6,s7,s8)][(s9,s10,s11,s12)]
!!!RDF**kern: > = above
!!!RDF**kern: < = below
!!!ENC: Andrzej Borzym
!!!END: 2020-02-10
!!!ENC: Leszek Kubiak
!!!END: 2020-03-11
